packages/calcite-ui-icons/icons/mosaic-method-blend-24.svg

<?xml version="1.0" encoding="UTF-8"?><svg id="icons" xmlns="http://www.w3.org/2000/svg" viewBox="0 0 24 24"><defs><style>.cls-1{fill:none;}.cls-2{opacity:.5;}.cls-3{opacity:.25;}</style></defs><path class="cls-3" d="M2,5h2v2h-2v-2ZM5,10h2v-2h-2v2ZM7,3h2V1h-2v2ZM10,4v2h2v-2h-2ZM15,19h4v-4h-4v4Z"/><path d="M10,9v-1h1v1h-1ZM24,14v10h-10v-10h10ZM23,15h-8v8h8v-8ZM11,11h8v2h1v-3h-10v10h3v-1h-2v-8ZM16,7H6V0h10v7ZM9,4h-2v2h2v-2ZM9,1h-2v2h2V1ZM12,4h-2v2h2v-2ZM12,1h-2v2h2V1ZM15,4h-2v2h2v-2ZM15,1h-2v2h2V1ZM8,10h1v1H1v-7h4v3c0,.55273.44727,1,1,1h-1v2h2v-2h1v2ZM4,8h-2v2h2v-2ZM4,5h-2v2h2v-2Z"/><path class="cls-2" d="M20,15v5h-5v-1h4v-4h1ZM15,4h-2v2h2v-2ZM8,10h1c0-.55273.44727-1,1-1v-1h-2v2ZM12,1h-2v2h2V1ZM19,11h-8v8h2v-6h6v-2Z"/><rect class="cls-1" width="24" height="24"/></svg>

<svg xmlns="http://www.w3.org/2000/svg" viewBox="0 0 24 24"><path d="M2 5h2v2H2V5zm3 5h2V8H5v2zm2-7h2V1H7v2zm3 1v2h2V4h-2zm5 15h4v-4h-4v4z" opacity=".25"/><path d="M10 9V8h1v1h-1zm14 5v10H14V14h10zm-1 1h-8v8h8v-8zm-12-4h8v2h1v-3H10v10h3v-1h-2v-8zm5-4H6V0h10v7zM9 4H7v2h2V4zm0-3H7v2h2V1zm3 3h-2v2h2V4zm0-3h-2v2h2V1zm3 3h-2v2h2V4zm0-3h-2v2h2V1zm-7 9h1v1H1V4h4v3a1 1 0 0 0 1 1H5v2h2V8h1v2zM4 8H2v2h2V8zm0-3H2v2h2V5z"/><path fill="#595959" d="M19 15v4h-4v1h5v-5h-1z"/><path d="M19 11v2h-6v6h-2v-8h8zm-4-7h-2v2h2V4zm-7 6h1a1 1 0 0 1 1-1V8H8v2zm4-9h-2v2h2V1z" opacity=".5"/><path fill="none" d="M0 0h24v24H0z"/></svg>
